icons/op-locked-24.svg

<svg width="24" height="24" viewBox="0 0 24 24" fill="none" xmlns="http://www.w3.org/2000/svg">
<path d="M16.9206 10.3059V8.8C16.9206 6.13333 14.6984 4 12 4C9.30159 4 7.07937 6.13333 7.07937 8.8V10.3059H6V20H18V10.3059H16.9206ZM12.7619 17.8353H10.9524L11.3968 15.3569C11.1429 15.2 10.9524 14.949 10.9524 14.6039C10.9524 14.102 11.3651 13.7255 11.8413 13.7255C12.3492 13.7255 12.7619 14.102 12.7619 14.6039C12.7619 14.949 12.5714 15.2 12.2857 15.3569L12.7619 17.8353ZM14.7302 10.3059H9.26984V8.8C9.26984 7.35686 10.5079 6.16471 12 6.16471C13.4921 6.16471 14.7302 7.35686 14.7302 8.8V10.3059Z" fill="black"/>
</svg>

<svg xmlns="http://www.w3.org/2000/svg" width="24" height="24" viewBox="0 0 24 24"><path d="M16.921 10.306V8.8C16.921 6.133 14.698 4 12 4 9.302 4 7.079 6.133 7.079 8.8v1.506H6V20h12v-9.694h-1.079Zm-4.159 7.529h-1.81l.445-2.478c-.254-.157-.445-.408-.445-.753 0-.502.413-.878.889-.878.508 0 .921.376.921.878 0 .345-.191.596-.476.753l.476 2.478Zm1.968-7.529H9.27V8.8c0-1.443 1.238-2.635 2.73-2.635s2.73 1.192 2.73 2.635v1.506Z"/></svg>
